assets/img/components/dropdownmenu.svg

<svg width="272" height="143" viewBox="0 0 272 143" fill="none" xmlns="http://www.w3.org/2000/svg">
<rect width="272" height="143" rx="8" fill="#EDEDED"/>
<rect x="28.75" y="51.7234" width="214.5" height="67.0903" rx="4.72467" fill="white"/>
<path d="M38.1992 102.75C38.1992 101.184 39.4684 99.915 41.034 99.915H143C144.566 99.915 145.835 101.184 145.835 102.75C145.835 104.315 144.566 105.585 143 105.585H41.034C39.4684 105.585 38.1992 104.315 38.1992 102.75Z" fill="#A7A9AB"/>
<path d="M38.1992 85.2686C38.1992 83.703 39.4684 82.4338 41.034 82.4338H168.128C169.693 82.4338 170.962 83.703 170.962 85.2686C170.962 86.8343 169.693 88.1034 168.128 88.1034H41.034C39.4684 88.1034 38.1992 86.8343 38.1992 85.2686Z" fill="#A7A9AB"/>
<path d="M38.1992 67.7874C38.1992 66.2218 39.4684 64.9526 41.034 64.9526H120.172C121.738 64.9526 123.007 66.2218 123.007 67.7874C123.007 69.3531 121.738 70.6222 120.172 70.6222H41.034C39.4684 70.6222 38.1992 69.3531 38.1992 67.7874Z" fill="#A7A9AB"/>
<g filter="url(#filter0_dd_141_675)">
<rect x="28.75" y="50.1931" width="214.5" height="75.8203" rx="4.72467" fill="white"/>
<path d="M38.1992 69.3175C38.1992 67.7519 39.4684 66.4827 41.034 66.4827H120.408C121.974 66.4827 123.243 67.7519 123.243 69.3175C123.243 70.8831 121.974 72.1523 120.408 72.1523H41.034C39.4684 72.1523 38.1992 70.8831 38.1992 69.3175Z" fill="#A7A9AB"/>
<path d="M38.1992 89.161C38.1992 87.5954 39.4684 86.3262 41.034 86.3262H168.6C170.166 86.3262 171.435 87.5954 171.435 89.161C171.435 90.7266 170.166 91.9958 168.6 91.9958H41.034C39.4684 91.9958 38.1992 90.7266 38.1992 89.161Z" fill="#A7A9AB"/>
<path d="M38.1992 109.004C38.1992 107.439 39.4684 106.17 41.034 106.17H143.087C144.653 106.17 145.922 107.439 145.922 109.004C145.922 110.57 144.653 111.839 143.087 111.839H41.034C39.4684 111.839 38.1992 110.57 38.1992 109.004Z" fill="#A7A9AB"/>
</g>
<path d="M28.75 26.5595C28.75 22.3845 32.1345 19 36.3095 19H115.191C119.366 19 122.75 22.3845 122.75 26.5595V37.4405C122.75 41.6155 119.366 45 115.191 45H36.3095C32.1345 45 28.75 41.6155 28.75 37.4405V26.5595Z" fill="#154973"/>
<path d="M39.1426 32.619C39.1426 31.299 40.2126 30.229 41.5326 30.229H93.4526C94.7725 30.229 95.8426 31.299 95.8426 32.619C95.8426 33.939 94.7725 35.009 93.4526 35.009H41.5326C40.2126 35.009 39.1426 33.939 39.1426 32.619Z" fill="white"/>
<path d="M108.18 31.2075L103.906 34.6899C103.705 34.8536 103.449 34.9354 103.139 34.9354C102.828 34.9354 102.573 34.8536 102.372 34.6899C102.171 34.5262 102.07 34.3178 102.07 34.0648C102.07 33.8118 102.171 33.6035 102.372 33.4398L107.413 29.3323C107.632 29.1537 107.888 29.0645 108.18 29.0645C108.473 29.0645 108.728 29.1537 108.947 29.3323L113.989 33.4398C114.19 33.6035 114.29 33.8118 114.29 34.0648C114.29 34.3178 114.19 34.5262 113.989 34.6899C113.788 34.8536 113.532 34.9354 113.222 34.9354C112.911 34.9354 112.655 34.8536 112.455 34.6899L108.18 31.2075Z" fill="white"/>
<defs>
<filter id="filter0_dd_141_675" x="24.0253" y="49.2482" width="223.949" height="85.2697" filterUnits="userSpaceOnUse" color-interpolation-filters="sRGB">
<feFlood flood-opacity="0" result="BackgroundImageFix"/>
<feColorMatrix in="SourceAlpha" type="matrix" values="0 0 0 0 0 0 0 0 0 0 0 0 0 0 0 0 0 0 127 0" result="hardAlpha"/>
<feMorphology radius="0.944934" operator="erode" in="SourceAlpha" result="effect1_dropShadow_141_675"/>
<feOffset dy="3.77974"/>
<feGaussianBlur stdDeviation="2.8348"/>
<feComposite in2="hardAlpha" operator="out"/>
<feColorMatrix type="matrix" values="0 0 0 0 0.105882 0 0 0 0 0.105882 0 0 0 0 0.105882 0 0 0 0.01 0"/>
<feBlend mode="normal" in2="BackgroundImageFix" result="effect1_dropShadow_141_675"/>
<feColorMatrix in="SourceAlpha" type="matrix" values="0 0 0 0 0 0 0 0 0 0 0 0 0 0 0 0 0 0 127 0" result="hardAlpha"/>
<feMorphology radius="0.944934" operator="erode" in="SourceAlpha" result="effect2_dropShadow_141_675"/>
<feOffset dy="3.77974"/>
<feGaussianBlur stdDeviation="2.8348"/>
<feComposite in2="hardAlpha" operator="out"/>
<feColorMatrix type="matrix" values="0 0 0 0 0.105882 0 0 0 0 0.105882 0 0 0 0 0.105882 0 0 0 0.1 0"/>
<feBlend mode="normal" in2="effect1_dropShadow_141_675" result="effect2_dropShadow_141_675"/>
<feBlend mode="normal" in="SourceGraphic" in2="effect2_dropShadow_141_675" result="shape"/>
</filter>
</defs>
</svg>

<svg xmlns="http://www.w3.org/2000/svg" width="272" height="143" fill="none" viewBox="0 0 272 143"><rect width="272" height="143" fill="#ededed" rx="8"/><rect width="214.5" height="67.09" x="28.75" y="51.723" fill="#fff" rx="4.725"/><path fill="#a7a9ab" d="M38.2 102.75a2.835 2.835 0 0 1 2.834-2.835H143a2.835 2.835 0 1 1 0 5.67H41.034a2.835 2.835 0 0 1-2.835-2.835M38.2 85.269a2.835 2.835 0 0 1 2.834-2.835h127.094a2.835 2.835 0 0 1 0 5.67H41.034a2.835 2.835 0 0 1-2.835-2.835M38.2 67.787a2.835 2.835 0 0 1 2.834-2.834h79.138a2.835 2.835 0 1 1 0 5.67H41.034a2.835 2.835 0 0 1-2.835-2.836"/><g filter="url(#a)"><rect width="214.5" height="75.82" x="28.75" y="50.193" fill="#fff" rx="4.725"/><path fill="#a7a9ab" d="M38.2 69.318a2.835 2.835 0 0 1 2.834-2.835h79.374a2.835 2.835 0 1 1 0 5.67H41.034a2.835 2.835 0 0 1-2.835-2.836M38.2 89.161a2.835 2.835 0 0 1 2.834-2.835H168.6a2.835 2.835 0 1 1 0 5.67H41.034a2.835 2.835 0 0 1-2.835-2.835M38.2 109.004a2.835 2.835 0 0 1 2.834-2.834h102.053a2.834 2.834 0 1 1 0 5.669H41.034a2.835 2.835 0 0 1-2.835-2.835"/></g><path fill="#154973" d="M28.75 26.56A7.56 7.56 0 0 1 36.31 19h78.881a7.56 7.56 0 0 1 7.559 7.56v10.88a7.56 7.56 0 0 1-7.559 7.56H36.31a7.56 7.56 0 0 1-7.56-7.56z"/><path fill="#fff" d="M39.143 32.619a2.39 2.39 0 0 1 2.39-2.39h51.92a2.39 2.39 0 0 1 0 4.78h-51.92a2.39 2.39 0 0 1-2.39-2.39M108.18 31.208l-4.274 3.482q-.302.245-.767.245-.466 0-.767-.245a.77.77 0 0 1-.302-.625q0-.38.302-.625l5.041-4.108q.329-.268.767-.268.439 0 .767.268l5.042 4.108a.77.77 0 0 1 .301.625q0 .38-.301.625-.302.245-.767.245-.467 0-.767-.245z"/><defs><filter id="a" width="223.949" height="85.27" x="24.025" y="49.248" color-interpolation-filters="sRGB" filterUnits="userSpaceOnUse"><feFlood flood-opacity="0" result="BackgroundImageFix"/><feColorMatrix in="SourceAlpha" result="hardAlpha" values="0 0 0 0 0 0 0 0 0 0 0 0 0 0 0 0 0 0 127 0"/><feMorphology in="SourceAlpha" radius=".945" result="effect1_dropShadow_141_675"/><feOffset dy="3.78"/><feGaussianBlur stdDeviation="2.835"/><feComposite in2="hardAlpha" operator="out"/><feColorMatrix values="0 0 0 0 0.105882 0 0 0 0 0.105882 0 0 0 0 0.105882 0 0 0 0.01 0"/><feBlend in2="BackgroundImageFix" result="effect1_dropShadow_141_675"/><feColorMatrix in="SourceAlpha" result="hardAlpha" values="0 0 0 0 0 0 0 0 0 0 0 0 0 0 0 0 0 0 127 0"/><feMorphology in="SourceAlpha" radius=".945" result="effect2_dropShadow_141_675"/><feOffset dy="3.78"/><feGaussianBlur stdDeviation="2.835"/><feComposite in2="hardAlpha" operator="out"/><feColorMatrix values="0 0 0 0 0.105882 0 0 0 0 0.105882 0 0 0 0 0.105882 0 0 0 0.1 0"/><feBlend in2="effect1_dropShadow_141_675" result="effect2_dropShadow_141_675"/><feBlend in="SourceGraphic" in2="effect2_dropShadow_141_675" result="shape"/></filter></defs></svg>
